public/icons/tools/nuxtjs.svg

<svg width="33" height="33" viewBox="0 0 33 33" fill="none" xmlns="http://www.w3.org/2000/svg">
<path d="M29.9187 24.5821L22.2253 10.8755C22.092 10.7688 21.692 10.0088 20.892 10.0088C20.5587 10.0088 20.092 10.1421 19.612 10.8755L18.6253 12.4488L15.932 7.63547C15.8653 7.50213 15.3987 6.7688 14.5987 6.7688C14.2653 6.7688 13.732 6.90213 13.332 7.63547L3.75867 24.5155C3.69201 24.6488 3.29201 25.4355 3.69201 26.1021C3.82534 26.4355 4.22534 26.7688 5.10534 26.7688H28.652C28.7853 26.7688 29.652 26.7688 30.052 26.1021C30.1853 25.7821 30.3187 25.2488 29.9187 24.5821ZM11.652 24.5155L11.452 25.2488H5.17201L14.6653 8.55547L17.732 14.0621L11.652 24.5155ZM13.132 25.2488L18.612 15.6488L24.1853 25.2488H13.132ZM25.8387 25.2488L25.572 24.5155L19.5187 14.0488L20.892 11.7421L28.5187 25.2488H25.8387Z" fill="#000000"/>
</svg>

<svg width="33" height="33" fill="none" xmlns="http://www.w3.org/2000/svg"><path d="M29.919 24.582l-7.694-13.707c-.133-.106-.533-.866-1.333-.866-.333 0-.8.133-1.28.867l-.987 1.573-2.693-4.814c-.067-.133-.533-.866-1.333-.866-.334 0-.867.133-1.267.866l-9.573 16.88c-.067.134-.467.92-.067 1.587.133.334.533.667 1.413.667h23.547c.133 0 1 0 1.4-.667.133-.32.267-.853-.133-1.52zm-18.267-.067l-.2.734h-6.28l9.493-16.694 3.067 5.507-6.08 10.454zm1.48.734l5.48-9.6 5.573 9.6H13.132zm12.707 0l-.267-.733-6.053-10.467 1.373-2.307 7.627 13.507h-2.68z" fill="#000"/></svg>
